antibot/app/images/dist/clicks-icon2.svg

<svg width="51" height="40" viewBox="0 0 51 40" fill="none" xmlns="http://www.w3.org/2000/svg">
<path d="M21.125 28.75C22.125 29.75 23.4167 30.24 25 30.22C26.5833 30.2 27.75 29.6267 28.5 28.5L42.5 7.5L21.5 21.5C20.375 22.25 19.7817 23.3958 19.72 24.9375C19.6583 26.4792 20.1267 27.75 21.125 28.75ZM25 3.16857e-06C27.4583 3.16857e-06 29.8233 0.34417 32.095 1.0325C34.3667 1.72084 36.5017 2.75167 38.5 4.125L33.75 7.125C32.375 6.41667 30.9483 5.88584 29.47 5.5325C27.9917 5.17917 26.5017 5.00167 25 5C19.4583 5 14.7392 6.9475 10.8425 10.8425C6.94583 14.7375 4.99833 19.4567 5 25C5 26.75 5.24 28.4792 5.72 30.1875C6.2 31.8958 6.87667 33.5 7.75 35H42.25C43.2083 33.4167 43.9067 31.7708 44.345 30.0625C44.7833 28.3542 45.0017 26.5833 45 24.75C45 23.25 44.8225 21.7917 44.4675 20.375C44.1125 18.9583 43.5817 17.5833 42.875 16.25L45.875 11.5C47.125 13.4583 48.115 15.5417 48.845 17.75C49.575 19.9583 49.96 22.25 50 24.625C50.0417 27 49.7708 29.2708 49.1875 31.4375C48.6042 33.6042 47.75 35.6667 46.625 37.625C46.1667 38.375 45.5417 38.9583 44.75 39.375C43.9583 39.7917 43.125 40 42.25 40H7.75C6.875 40 6.04167 39.7917 5.25 39.375C4.45833 38.9583 3.83333 38.375 3.375 37.625C2.29167 35.75 1.45833 33.76 0.875 31.655C0.291666 29.55 0 27.3317 0 25C0 21.5417 0.656667 18.3017 1.97 15.28C3.28333 12.2583 5.075 9.61334 7.345 7.345C9.615 5.07334 12.27 3.28084 15.31 1.9675C18.35 0.65417 21.58 -0.0016635 25 3.16857e-06Z" fill="#27C58B"/>
</svg>

<svg width="51" height="40" fill="none" xmlns="http://www.w3.org/2000/svg"><path d="M21.125 28.75c1 1 2.292 1.49 3.875 1.47 1.583-.02 2.75-.593 3.5-1.72l14-21-21 14c-1.125.75-1.718 1.896-1.78 3.438-.062 1.541.407 2.812 1.405 3.812ZM25 0c2.458 0 4.823.344 7.095 1.032A23.057 23.057 0 0 1 38.5 4.125l-4.75 3a18.921 18.921 0 0 0-4.28-1.593A19.258 19.258 0 0 0 25 5c-5.542 0-10.26 1.947-14.158 5.842C6.946 14.738 4.998 19.457 5 25c0 1.75.24 3.48.72 5.188A20.593 20.593 0 0 0 7.75 35h34.5a18.274 18.274 0 0 0 2.095-4.938c.438-1.708.657-3.479.655-5.312 0-1.5-.178-2.958-.532-4.375a18.264 18.264 0 0 0-1.593-4.125l3-4.75a27.772 27.772 0 0 1 2.97 6.25A23.01 23.01 0 0 1 50 24.625c.042 2.375-.23 4.646-.813 6.813a25.876 25.876 0 0 1-2.562 6.187 4.742 4.742 0 0 1-1.875 1.75 5.294 5.294 0 0 1-2.5.625H7.75a5.294 5.294 0 0 1-2.5-.625 4.743 4.743 0 0 1-1.875-1.75 25.49 25.49 0 0 1-2.5-5.97C.292 29.55 0 27.332 0 25c0-3.458.657-6.698 1.97-9.72 1.313-3.022 3.105-5.667 5.375-7.935 2.27-2.272 4.925-4.064 7.965-5.377C18.35.654 21.58-.002 25 0Z" fill="#27C58B"/></svg>
